actions/22x22-light/view-calendar-week.svg

<svg xmlns="http://www.w3.org/2000/svg" viewBox="0 0 22 22">
 <defs id="defs3051">
   <style type="text/css" id="current-color-scheme">
     .ColorScheme-Text {
       color:#4d4d4d;
     }
     </style>
 </defs>
   <path
      style="fill:currentColor;fill-opacity:1;stroke:none"
      d="m4 3c-.55402 0-1 .44598-1 1v14c0 .55402.44598 1 1 1h14c .55402 0 1-.44598 1-1v-14c0-.55402-.44598-1-1-1zm3.11914 3a1.2697625 1.2697625 0 0 1 1.26953 1.26953 1.2697625 1.2697625 0 0 1 -1.26953 1.27149 1.2697625 1.2697625 0 0 1 -1.26953-1.27149 1.2697625 1.2697625 0 0 1 1.26953-1.26953zm3.87305 0a1.2697625 1.2697625 0 0 1 1.26953 1.26953 1.2697625 1.2697625 0 0 1 -1.26953 1.27149 1.2697625 1.2697625 0 0 1 -1.26953-1.27149 1.2697625 1.2697625 0 0 1 1.26953-1.26953zm3.88867 0a1.2697625 1.2697625 0 0 1 1.26953 1.26953 1.2697625 1.2697625 0 0 1 -1.26953 1.26953 1.2697625 1.2697625 0 0 1 -1.26953-1.26953 1.2697625 1.2697625 0 0 1 1.26953-1.26953zm-7.76172 7.46094a1.2697625 1.2697625 0 0 1 1.26953 1.26953 1.2697625 1.2697625 0 0 1 -1.26953 1.26953 1.2697625 1.2697625 0 0 1 -1.26953-1.26953 1.2697625 1.2697625 0 0 1 1.26953-1.26953z"
      class="ColorScheme-Text" />
 <defs id="defs3051">
   <style type="text/css" id="current-color-scheme">
     .ColorScheme-Text {
       color:#2ecc71;
     }
     </style>
 </defs>
   <path
      style="fill:currentColor;fill-opacity:1;stroke:none"
      d="m14.880849 9.729465a1.2697625 1.2697625 0 0 0 -1.26953 1.27149 1.2697625 1.2697625 0 0 0 1.26953 1.26953 1.2697625 1.2697625 0 0 0 1.26954-1.26953 1.2697625 1.2697625 0 0 0 -1.26954-1.27149zm-7.7617096.002a1.2697625 1.2697625 0 0 0 -1.26953 1.26954 1.2697625 1.2697625 0 0 0 1.26953 1.26953 1.2697625 1.2697625 0 0 0 1.26953-1.26953 1.2697625 1.2697625 0 0 0 -1.26953-1.26954zm3.8730396 0a1.2697625 1.2697625 0 0 0 -1.2695296 1.26954 1.2697625 1.2697625 0 0 0 1.2695296 1.26953 1.2697625 1.2697625 0 0 0 1.26953-1.26953 1.2697625 1.2697625 0 0 0 -1.26953-1.26954z"
      class="ColorScheme-Text" />
</svg>

<svg xmlns="http://www.w3.org/2000/svg" viewBox="0 0 22 22">
  <defs id="defs3051">
    <style type="text/css" id="current-color-scheme">
      .ColorScheme-Text {
        color:#4d4d4d
      }
      </style>
  </defs>
    <path
       style="fill:currentColor;fill-opacity:1;stroke:none"
       class="ColorScheme-Text"
       d="M 4,3 C 3.44598,3 3,3.44598 3,4 l 0,14 c 0,0.55402 0.44598,1 1,1 l 14,0 c 0.55402,0 1,-0.44598 1,-1 L 19,4 C 19,3.44598 18.55402,3 18,3 L 4,3 Z M 7.11914,6 A 1.2697625,1.2697625 0 0 1 8.38867,7.26953 1.2697625,1.2697625 0 0 1 7.11914,8.54102 1.2697625,1.2697625 0 0 1 5.84961,7.26953 1.2697625,1.2697625 0 0 1 7.11914,6 Z m 3.87305,0 A 1.2697625,1.2697625 0 0 1 12.26172,7.26953 1.2697625,1.2697625 0 0 1 10.99219,8.54102 1.2697625,1.2697625 0 0 1 9.72266,7.26953 1.2697625,1.2697625 0 0 1 10.99219,6 Z m 3.88867,0 A 1.2697625,1.2697625 0 0 1 16.15039,7.26953 1.2697625,1.2697625 0 0 1 14.88086,8.53906 1.2697625,1.2697625 0 0 1 13.61133,7.26953 1.2697625,1.2697625 0 0 1 14.88086,6 Z M 7.11914,13.46094 A 1.2697625,1.2697625 0 0 1 8.38867,14.73047 1.2697625,1.2697625 0 0 1 7.11914,16 1.2697625,1.2697625 0 0 1 5.84961,14.73047 1.2697625,1.2697625 0 0 1 7.11914,13.46094 Z"
        />
    <path
       style="fill:#2ecc71;fill-opacity:1;stroke:none"
       d="m 14.880849,9.729465 a 1.2697625,1.2697625 0 0 0 -1.26953,1.27149 1.2697625,1.2697625 0 0 0 1.26953,1.26953 1.2697625,1.2697625 0 0 0 1.26954,-1.26953 1.2697625,1.2697625 0 0 0 -1.26954,-1.27149 z m -7.7617096,0.002 a 1.2697625,1.2697625 0 0 0 -1.26953,1.26954 1.2697625,1.2697625 0 0 0 1.26953,1.26953 1.2697625,1.2697625 0 0 0 1.26953,-1.26953 1.2697625,1.2697625 0 0 0 -1.26953,-1.26954 z m 3.8730396,0 a 1.2697625,1.2697625 0 0 0 -1.2695296,1.26954 1.2697625,1.2697625 0 0 0 1.2695296,1.26953 1.2697625,1.2697625 0 0 0 1.26953,-1.26953 1.2697625,1.2697625 0 0 0 -1.26953,-1.26954 z"
        />
</svg>
